X:112
T:I’ll be Married on Thursday. RHu.112
T:Pop Goes the Weasel,aka. RHu.112
S:R.Hughes MS,1823,Whitchurch,Shrops.
A:Whitchurch , Shropshire
Z:Neil Brookes 2007
M:6/8
L:1/8
Q:3/8=120
R:Jig
K:G
G2B AcA|BdB AFD|G2B AcA|B3″cr in MS”G3::!
gfg efg|agf def|gfg efg|f3″cr in MS”d3|!
gfg efg|afd d2B|G2B AcA|B3G3:|

